src/assets/healthPage/Invisalign/6.svg

<svg height="112" viewBox="0 0 232 112" width="232" xmlns="http://www.w3.org/2000/svg"><g fill="none" fill-rule="evenodd" opacity=".5"><path d="m68.1640625.69921875c7.1289063 0 7.1289063 0 11.8164063 1.31835937 4.6875 1.31835938 4.6875 1.31835938 7.9101562 3.27148438 6.9335938 4.1015625 6.9335938 4.1015625 6.9335938 8.7890625s0 4.6875-4.3945313 7.5195312c-1.0742187.6835938-1.0742187.6835938-1.9042969.6835938-.8300781 0-.8300781 0-1.7089844-.9765625-.8789062-.9765625-.8789062-.9765625-2.0019531-2.3925781s-1.1230469-1.4160156-2.6367187-3.125c-1.5136719-1.7089844-1.5136719-1.7089844-3.6621094-3.0761719-5.2734375-3.41796875-5.2734375-3.41796875-12.8417969-3.41796875-7.5683593 0-7.5683593 0-14.6972656 3.56445315-7.1289063 3.5644531-7.1289063 3.5644531-12.5 10.7910156-11.71875 15.7226563-11.71875 15.7226563-11.71875 44.0429687 0 20.5216165 0 20.5216165 6.116859 35.3086778l-18.1547014-.000728c-5.44262635-13.1340162-5.44262635-13.1340162-5.44262635-29.3509185 0-29.3945313 0-29.3945313 17.48046875-50.9765625 11.2304687-13.8671875 11.2304687-13.8671875 26.5625-19.23828125 7.7148437-2.734375 7.7148437-2.734375 14.84375-2.734375zm.78125 43.35937505c16.8945313 0 16.8945313 0 27.8320313 11.8652343 10.9375002 11.8652344 10.9375002 11.8652344 10.9375002 30.6152344 0 8.8329678 0 8.8329678-2.393514 16.4609255l-14.090776-.000165c.7616335-4.4769303.7616335-4.4769303.7616335-9.624823 0-17.3828125 0-17.3828125-8.203125-27.34375-7.421875-9.1796875-7.421875-9.1796875-19.4335937-9.1796875-13.7695313 0-13.7695313 0-21.09375 14.2578125-2.2460938 4.296875-2.2460938 4.296875-3.0761719 7.7636719s-.8300781 3.4667969-1.5625 4.1992187c-.7324219.7324219-.7324219.7324219-1.7089844.7324219-2.734375 0-2.734375 0-2.734375-5.46875s0-5.46875 2.8808594-11.6699219c2.8808593-6.2011718 2.8808593-6.2011718 7.6660156-11.1816406 10.9375-11.4257812 10.9375-11.4257812 24.21875-11.4257812z" fill="#f05024"/><path d="m0 111h232v1h-232z" fill="#55311b" opacity=".1"/></g></svg>

<?xml version="1.0" encoding="UTF-8"?>
<svg width="232px" height="112px" viewBox="0 0 232 112" version="1.1" xmlns="http://www.w3.org/2000/svg" xmlns:xlink="http://www.w3.org/1999/xlink">
    <title>6</title>
    <g id="Design" stroke="none" stroke-width="1" fill="none" fill-rule="evenodd" opacity="0.5">
        <g id="Health---Invisalign" transform="translate(-1234.000000, -2326.000000)">
            <g id="Group-15" transform="translate(-3.000000, 0.000000)">
                <g id="G1" transform="translate(1237.000000, 2380.000000)">
                    <g id="1" transform="translate(0.000000, -54.000000)">
                        <path d="M68.1640625,0.69921875 C75.2929688,0.69921875 75.2929688,0.69921875 79.9804688,2.01757812 C84.6679688,3.3359375 84.6679688,3.3359375 87.890625,5.2890625 C94.8242188,9.390625 94.8242188,9.390625 94.8242188,14.078125 C94.8242188,18.765625 94.8242188,18.765625 90.4296875,21.5976562 C89.3554688,22.28125 89.3554688,22.28125 88.5253906,22.28125 C87.6953125,22.28125 87.6953125,22.28125 86.8164062,21.3046875 C85.9375,20.328125 85.9375,20.328125 84.8144531,18.9121094 C83.6914062,17.4960938 83.6914062,17.4960938 82.1777344,15.7871094 C80.6640625,14.078125 80.6640625,14.078125 78.515625,12.7109375 C73.2421875,9.29296875 73.2421875,9.29296875 65.6738281,9.29296875 C58.1054688,9.29296875 58.1054688,9.29296875 50.9765625,12.8574219 C43.8476562,16.421875 43.8476562,16.421875 38.4765625,23.6484375 C26.7578125,39.3710938 26.7578125,39.3710938 26.7578125,67.6914062 C26.7578125,88.2130227 26.7578125,88.2130227 32.8746715,103.000084 L14.7199701,102.999356 C9.27734375,89.8653398 9.27734375,89.8653398 9.27734375,73.6484375 C9.27734375,44.2539062 9.27734375,44.2539062 26.7578125,22.671875 C37.9882812,8.8046875 37.9882812,8.8046875 53.3203125,3.43359375 C61.0351562,0.69921875 61.0351562,0.69921875 68.1640625,0.69921875 Z M68.9453125,44.0585938 C85.8398438,44.0585938 85.8398438,44.0585938 96.7773438,55.9238281 C107.714844,67.7890625 107.714844,67.7890625 107.714844,86.5390625 C107.714844,95.3720303 107.714844,95.3720303 105.32133,102.999988 L91.230554,102.999823 C91.9921875,98.5228927 91.9921875,98.5228927 91.9921875,93.375 C91.9921875,75.9921875 91.9921875,75.9921875 83.7890625,66.03125 C76.3671875,56.8515625 76.3671875,56.8515625 64.3554688,56.8515625 C50.5859375,56.8515625 50.5859375,56.8515625 43.2617188,71.109375 C41.015625,75.40625 41.015625,75.40625 40.1855469,78.8730469 C39.3554688,82.3398438 39.3554688,82.3398438 38.6230469,83.0722656 C37.890625,83.8046875 37.890625,83.8046875 36.9140625,83.8046875 C34.1796875,83.8046875 34.1796875,83.8046875 34.1796875,78.3359375 C34.1796875,72.8671875 34.1796875,72.8671875 37.0605469,66.6660156 C39.9414062,60.4648438 39.9414062,60.4648438 44.7265625,55.484375 C55.6640625,44.0585938 55.6640625,44.0585938 68.9453125,44.0585938 Z" id="Combined-Shape" fill="#F05024"></path>
                        <rect id="line" fill="#55311B" opacity="0.100000001" x="0" y="111" width="232" height="1"></rect>
                    </g>
                </g>
            </g>
        </g>
    </g>
</svg>
